X: 1
T: Donaghadee
R: jig
N: Scotland
O: Kerr's Merry Melodies
S: Arr. T. Traub 11-11-02
L: 1/8
M: 6/8
K: C
G \
|:"C"c2 c c2 c | "C"edc efg | "C"c2 c "Am"c2 c | "Dm"dec "G"BAG \
| "C"c2 c c2 c | "C"edc efg | "F"a2 g f2 e | "D"dec "G"BAG :|
|:"C"g2 g "C/B"g2 g | "Am"gag edc | "Dm"d2 d "D"d2 d | "G"ded BAG \
| "C"g2 g "C/B"g2 g | "Am"gag efg | "F"a2 g f2 e |1 "G"ded BAG :|2 "G"dcB "C"c2 |]
